!!!OTL: Das Veilchen und das Maedchen.
!!!OTL-incipit:MAEDCHEN SIEH DAS VEILCHEN AN
!!!COM: G. Doering
!!!ARE: Europa, Mitteleuropa, Deutschland
!!!SCT: F0295
!!!TXL: @@DE
!!!YEM: Copyright 1995, estate of Helmut Schaffrath.
**kern	**text
*ICvox	*
*clefG2	*
*M4/4	*
*met(c)	*
*k[b-e-a-d-]	*
*A-:	*
=1	=1
!LO:TX:a:t=Mäßig.	!
{4.a-	1._Mädchen,
8b-	.
4cc	ſieh
4e-	das
=2	=2
4.b-	Veil-
8cc	-chen
4dd-	an,
4r}	.
=3	=3
{4.cc	das
8dd-	am
(4ee-	Ba-
8g)	.
8a-	-che
=4	=4
4cc	blü-
4b-	-het
2r}	.
=5	=5
{4.a-	und
8b-	auf
4cc	dei-
4e-	-nes
=6	=6
4.b-	Le-
8cc	-bensdahn
4dd-	.
4r}	.
=7	=7
{4.cc	dir
8ddn	als
4ee-	Sinn-
4ff	-bild
=8	=8
(4.ee-	glü-
8ddn)	.
4ee-	-het;
4r}	.
=9	=9
{8ff	Veilchen
8ee-	.
8dd-X	iſt
8cc	ein
4b-	lie-
4e-	-bes
=10	=10
2cc}	Kind,
{8ee-	gar
8dd-	be-
8cc	-ſcheiden
8b-	.
=11	=11
(4.a-	ʒart
8b-	.
4cc)	.
4b-	und
=12	=12
2a-	lind.
2r}	.
==	==
!!!AGN: Jugend - Lied, Belehrung, Moral
!!!ONB: ESAC (Essen Associative Code) Database: FINK
!!!AMT: simple quadruple
!!!AIN: vox
!!!EED: Helmut Schaffrath
!!!EEV: 1.0
!!!GTL: Jugendlieder
!!!source: Musikalischer Hausschatz der Deutschen. Eine Sammlung von über 1000 Liedern und Gesängen mit Singstimmen und Klavierbegleitung. Leipzig, Litterarisches Verlags-Haus.
!!!page: 177
!!!URL-scan: https://www.digitale-sammlungen.de/en/view/bsb11144622?page=174,175
!!!ENC: Anna Maria Matuszewska
!!!EEV: 2024/07/30
*-	*-